X: 38
T: TWIXT DON AND DEE
C: Andrew Rankine
R: strathspey, shottish
B: "The Complete Andrew Rankine Collection of Scottish Country Dance Tunes" p.41 #2
Z: 2017 John Chambers <jc:trillian.mit.edu>
M: C
L: 1/8
K: G
d>B |:\
"G"G2 G2 "D7"G>F G<A | "G"B>G B<d "G7"g3 d |\
"/C"e>g "/B"d<g "/A"c>g "/G"B<g |[1 "A7"A>G A<B "D7"A>=c BA :|
[2 "A7"A>G "D7"A<B "G"G2 "D7"d>=c |]\
"G"B<G G>A B>G d<G | B<G G>A B2 "E7"d2 |\
"Am"e<A A>B c>A e<A |
"Am"c<A A>B c2 "D7"d>c |\
"G"B<G G>A B>G d<G | B<G G>A B2 "G7"d2 |\
"/C"e>g "/B"d<g "/A"c>g "/G"B<g | "A7"A>G "D7"A<B "G"G2 |]

%%sep 1 1 500

